X:1
T:Our King Is Coming Back to Reign
T:Our King Is Coming Back to Reign
T:Edgar Burkart
T:Charles Allen McConnell, 1901
T:Public Domain Courtesy of the Cyber Hymnal™
C:Edgar Burkart
Z:Public Domain
Z:Courtesy of the Cyber Hymnal™
%%score ( 1 2 ) ( 3 4 )
L:1/8
Q:1/4=83
M:2/4
K:F
V:1 treble 
V:2 treble 
V:3 bass 
V:4 bass 
V:1
 !fermata!C | F>E FG | AB c z | [EG]>[FA] [GB][Ac] | ([Gd][F=B]) [Ec]C | F>E FG | AB c z | %7
w: 1.~Our|king is com- ing|back to reign,|Glo- ry, hal- le-|lu- * jah! We’ll|see His bless- èd|face a- gain,|
w: 2.~No|more the “Man of|Sor- rows,” He,|Glo- ry, hal- le-|lu- * jah! The|world His ma- jes-|ty shall see,|
w: 3.~White|robes of right- eous-|ness I’ll wear,|Glo- ry, hal- le-|lu- * jah! To|greet this com- ing|king so fair,|
w: 4.~All|sin and death shall|flee a- way,|Glo- ry, hal- le-|lu- * jah! The|kings of earth shall|hom- age pay,|
w: 5.~In|His bright courts the|blood- washed soul,|Glo- ry, hal- le-|lu- * jah! His|praise shall sing while|ag- es roll,|
 [EG]>[FA] [GB]>[CG] | [CF]2 [CF] z ||"^Refrain" [Ff]>[Ff] [Ff][Dd] | [Ff][Ff] [Cc]2 | %11
w: Glo- ry, hal- le-|lu- jah!|||
w: Glo- ry, hal- le-|lu- jah!|||
w: Glo- ry, hal- le-|lu- jah!|Glo- ry! glo- ry!|I’ll be there;|
w: Glo- ry, hal- le-|lu- jah!|||
w: Glo- ry, hal- le-|lu- jah!|||
 [CF]>[CG] [FA][GB] | [Ac][Bd] [Ac]2 | cB AG | AB c2 | [EG]>[FA] [GB]>[CG] | [CF]2 [CF] |] %17
w: ||||||
w: ||||||
w: Rise to meet Him|in the air;|And His king- dom|I shall share,|Glo- ry, hal- le-|lu- jah!|
w: ||||||
w: ||||||
V:2
 C | F>E FG | AB c x | x4 | x3 C | F>E FG | AB c x | x4 | x4 || x4 | x4 | x4 | x4 | cB AG | AB c2 | %15
 x4 | x3 |] %17
V:3
 !fermata!C, | F,>E, F,G, | A,B, C z | C>C CC | (=B,D) [C,C]C, | F,>E, F,G, | A,B, C z | %7
 [C,C]>[C,C] [C,C]>[C,C] | [F,A,]2 [F,A,] z || [F,F]>[F,F] [F,F][D,D] | [F,F][F,F] [C,C]2 | %11
 [F,A,]>[F,B,] [F,C][F,C] | [F,C][F,F] [F,F]2 | CB, A,G, | A,B, C2 | [C,C]>[C,C] [C,C]>[C,B,] | %16
 [F,A,]2 [F,A,] |] %17
V:4
 C, | F,>E, F,G, | A,B, C x | C>C CC | G,2 C, x | F,>E, F,G, | A,B, C x | x4 | x4 || x4 | x4 | x4 | %12
 x4 | CB, A,G, | A,B, C2 | x4 | x3 |] %17

